assets/icons/whatsapp.svg

<svg width="40" height="40" viewBox="0 0 40 40" fill="none" xmlns="http://www.w3.org/2000/svg">
<path d="M20.0662 0C9.13911 0 0.264871 8.87416 0.264871 19.7351C0.264871 23.1788 1.19204 26.4901 2.9139 29.5365L0 40L10.6622 37.1523C13.7748 38.808 17.0198 39.7351 20.0662 39.7351C30.8609 39.7351 40 30.5959 40 19.7351C40 8.87416 31.0596 0 20.0662 0ZM20.0662 38.4106C17.1523 38.4106 14.0397 37.4835 11.0596 35.8279L10.7947 35.6954L1.85433 38.1457L4.30461 29.3378L4.17213 29.0729C2.51647 26.2252 1.58938 22.9802 1.58938 19.7351C1.58938 9.60265 9.86753 1.32451 20.0662 1.32451C30.3311 1.32451 38.6755 9.60265 38.6755 19.7351C38.6755 29.8676 30.1325 38.4106 20.0662 38.4106Z" fill="white"/>
<path d="M20.0662 3.31126C10.9934 3.31126 3.57614 10.6622 3.57614 19.7351C3.57614 22.9801 4.5033 26.0265 6.15888 28.7417L6.42375 29.0728L4.63578 35.3643L11.1259 33.7086L11.457 33.9073C14.1722 35.5629 17.1524 36.4238 20.0663 36.4238C29.2054 36.4238 36.6888 28.9404 36.6888 19.7351C36.6888 10.6622 29.2053 3.31126 20.0662 3.31126ZM20 35.1656C17.351 35.1656 14.6358 34.3047 12.1192 32.7815L11.3245 32.2517L6.49011 33.4437L7.81462 28.808L7.2848 27.9471C5.69542 25.4967 4.90073 22.649 4.90073 19.7351C4.90073 11.457 11.7219 4.63585 20.0663 4.63585C28.4769 4.63585 35.3643 11.457 35.3643 19.7351C35.3643 28.212 28.4768 35.0993 20 35.1656Z" fill="white"/>
<path d="M30 23.3775L25.8278 21.457C25.2318 21.1921 24.6358 21.3908 24.2385 21.8543L22.6491 23.9073C21.457 23.4438 18.1458 21.9868 16.2253 18.4106L17.6822 16.6887C18.0134 16.2914 18.0796 15.7616 17.8809 15.298L16.0929 11.0596C15.8942 10.5961 15.4968 10.2649 14.967 10.2649L13.7087 10.1987C13.1789 10.1987 12.5829 10.3312 12.1855 10.7286C11.5895 11.2584 10.4637 12.3842 10.1325 13.9074C9.66897 16.0928 10.3974 18.6756 12.2517 21.1922C13.3776 22.7816 16.8213 27.4836 23.4438 29.3378C24.106 29.5365 24.7683 29.6027 25.3643 29.6027C26.4901 29.6027 27.5497 29.2716 28.4769 28.7418C29.5365 28.0796 30.2649 26.9538 30.5299 25.7616L30.7285 24.8345C30.8609 24.2384 30.5299 23.6424 30 23.3775ZM29.1391 25.4304C28.9404 26.2913 28.4106 27.0861 27.6821 27.5496C26.5562 28.2781 25.2317 28.4105 23.7748 28.0132C17.6159 26.2913 14.3708 21.8542 13.3113 20.3972C11.7219 18.2118 11.0596 15.9602 11.457 14.1721C11.7218 12.9801 12.5828 12.1191 13.1126 11.6556C13.2451 11.5231 13.4438 11.4569 13.6424 11.4569L14.9669 11.5894L16.755 15.7616L15.1656 17.5496C14.9007 17.8808 14.8345 18.4105 15.0331 18.8079C17.2185 23.0463 21.1921 24.702 22.3841 25.0994C22.8477 25.2318 23.3113 25.0994 23.6424 24.702L25.2318 22.5828L29.404 24.5033L29.1391 25.4304Z" fill="white"/>
</svg>

<svg width="40" height="40" fill="none" xmlns="http://www.w3.org/2000/svg"><path d="M20.066 0C9.14 0 .265 8.874.265 19.735c0 3.444.927 6.755 2.649 9.802L0 40l10.662-2.848c3.113 1.656 6.358 2.583 9.404 2.583 10.795 0 19.934-9.14 19.934-20S31.06 0 20.066 0zm0 38.41c-2.914 0-6.026-.926-9.006-2.582l-.265-.133-8.94 2.45 2.45-8.807-.133-.265C2.516 26.225 1.59 22.98 1.59 19.735c0-10.132 8.279-18.41 18.477-18.41 10.265 0 18.61 8.278 18.61 18.41 0 10.133-8.544 18.676-18.61 18.676z" fill="#fff"/><path d="M20.066 3.311c-9.073 0-16.49 7.351-16.49 16.424 0 3.245.927 6.291 2.583 9.007l.265.33-1.788 6.292 6.49-1.655.331.198c2.715 1.656 5.695 2.517 8.61 2.517 9.138 0 16.622-7.484 16.622-16.689 0-9.073-7.484-16.424-16.623-16.424zM20 35.166c-2.649 0-5.364-.861-7.88-2.384l-.795-.53-4.835 1.192 1.325-4.636-.53-.86c-1.59-2.452-2.385-5.3-2.385-8.214 0-8.278 6.82-15.1 15.165-15.1 8.41 0 15.298 6.822 15.298 15.1 0 8.477-6.887 15.364-15.364 15.43z" fill="#fff"/><path d="M30 23.378l-4.172-1.921c-.596-.265-1.192-.066-1.59.397l-1.589 2.053c-1.192-.463-4.503-1.92-6.424-5.496l1.457-1.722c.331-.398.398-.927.199-1.391l-1.788-4.238c-.199-.464-.596-.795-1.126-.795l-1.258-.066c-.53 0-1.126.132-1.524.53-.596.53-1.721 1.655-2.053 3.178-.463 2.186.265 4.769 2.12 7.285 1.126 1.59 4.57 6.292 11.192 8.146a6.698 6.698 0 001.92.265c1.126 0 2.186-.331 3.113-.861 1.06-.662 1.788-1.788 2.053-2.98l.198-.928c.133-.596-.198-1.192-.728-1.456zm-.86 2.052c-.2.861-.73 1.656-1.458 2.12-1.126.728-2.45.86-3.907.463-6.16-1.722-9.404-6.159-10.464-7.616-1.59-2.185-2.251-4.437-1.854-6.225.265-1.192 1.126-2.053 1.656-2.516a.752.752 0 01.53-.2l1.324.133 1.788 4.173-1.59 1.788c-.264.33-.33.86-.132 1.258 2.185 4.238 6.16 5.894 7.351 6.291.464.133.927 0 1.258-.397l1.59-2.12 4.172 1.921-.265.927z" fill="#fff"/></svg>
